images/ico-bicro-marche-recyclage.svg

<svg xmlns="http://www.w3.org/2000/svg" width="25" height="25" fill="none" viewBox="0 0 25 25"><g id="marche/recyclage"><g id="Group 17"><path id="Shape" fill="#000638" fill-rule="evenodd" d="M12.9259 7.27694C13.1058 7.13343 13.1352 6.87126 12.9917 6.69138C12.8482 6.51149 12.5861 6.482 12.4062 6.62552C10.0939 8.47019 8.91602 10.3731 8.91602 12.3362C8.91602 12.8129 8.98595 13.2811 9.12555 13.7393C9.19261 13.9595 9.42543 14.0835 9.64556 14.0165C9.86569 13.9494 9.98978 13.7166 9.92272 13.4965C9.80706 13.1168 9.74935 12.7305 9.74935 12.3362C9.74935 10.6651 10.7936 8.97801 12.9259 7.27694ZM10.3675 14.4151L10.3371 14.374C10.2024 14.1874 9.94195 14.1454 9.75538 14.2801C9.56881 14.4148 9.52677 14.6752 9.66147 14.8618C9.67248 14.877 9.68393 14.8926 9.69585 14.9085L9.77283 15.0079C9.78658 15.0252 9.80078 15.0427 9.81544 15.0606L9.90892 15.1721L10.0134 15.2916L10.129 15.4192L10.2556 15.5549L10.3933 15.6988L10.5422 15.8509L10.7022 16.0112L10.9631 16.2671L11.1511 16.4481L11.3503 16.6374L11.6702 16.9371L12.0155 17.2558L12.3863 17.5935C12.5569 17.7479 12.8204 17.7348 12.9748 17.5642C13.1293 17.3936 13.1162 17.1301 12.9456 16.9757L12.823 16.8645L12.3603 16.4404L12.0421 16.1441L11.6567 15.7782L11.3969 15.5259L11.2375 15.3682L11.0195 15.1477L10.8268 14.9463L10.7123 14.8228L10.6091 14.7078L10.5172 14.6016L10.4367 14.504L10.3675 14.4151Z" clip-rule="evenodd"/><circle id="Ellipse 8" cx="17.25" cy="6.25" r="6.25" fill="#fdd"/><path id="Shape_2" fill="#000638" fill-rule="evenodd" d="M16.0834 12.3314C16.0834 10.4343 15.018 8.64195 12.9279 6.95988C12.7487 6.8156 12.4864 6.84397 12.3421 7.02324C12.1978 7.20251 12.2262 7.4648 12.4055 7.60908C14.3154 9.14623 15.25 10.7185 15.25 12.3314C15.25 12.6306 15.2181 12.9166 15.1544 13.19C15.1023 13.4141 15.2416 13.6381 15.4658 13.6903C15.6899 13.7425 15.9139 13.6031 15.9661 13.379C16.0444 13.0428 16.0834 12.6934 16.0834 12.3314ZM15.6799 14.5158C15.8077 14.3245 15.7561 14.0657 15.5647 13.938C15.3733 13.8102 15.1146 13.8617 14.9868 14.0531C14.9579 14.0964 14.9209 14.1448 14.8759 14.198L14.8025 14.2815L14.717 14.3724L14.6197 14.4705L14.5105 14.5757L14.3895 14.6882L14.2567 14.8077L14.1122 14.9342L13.956 15.0677L13.7881 15.2081L13.6086 15.3553L13.4175 15.5094L13.1094 15.753L12.7754 16.0117L12.4158 16.2851C12.2321 16.4236 12.1955 16.6849 12.334 16.8687C12.4725 17.0524 12.7338 17.089 12.9175 16.9505L13.1735 16.7564L13.4174 16.5693L13.6493 16.389L13.869 16.2156L14.0768 16.049L14.3661 15.8117L14.6287 15.5893L14.7889 15.4493L14.9374 15.3158L15.0742 15.1887L15.1992 15.068L15.3126 14.9537L15.4144 14.8456L15.5046 14.7437C15.575 14.6614 15.6334 14.5855 15.6799 14.5158Z" clip-rule="evenodd"/><path id="Path 25" fill="#000638" d="M12.7497 9.53455C12.9654 9.53455 13.1429 9.6985 13.1642 9.90861L13.1663 9.95121V17.9512C13.1663 18.1813 12.9798 18.3679 12.7497 18.3679C12.5339 18.3679 12.3565 18.2039 12.3352 17.9938L12.333 17.9512V9.95121C12.333 9.72109 12.5196 9.53455 12.7497 9.53455Z"/><path id="Path 26" fill="#000638" d="M13.7054 10.6566C13.8681 10.4939 14.1319 10.4939 14.2946 10.6566C14.4465 10.8085 14.4566 11.0484 14.325 11.212L14.2946 11.2458L12.9613 12.5792C12.7986 12.7419 12.5348 12.7419 12.372 12.5792C12.2202 12.4273 12.21 12.1874 12.3417 12.0238L12.372 11.9899L13.7054 10.6566Z"/><path id="Path 27" fill="#000638" d="M11.0724 11.6259C11.2401 11.4917 11.4797 11.5081 11.6278 11.657L11.6581 11.6909L12.9914 13.3576C13.1351 13.5373 13.106 13.7995 12.9263 13.9433C12.7586 14.0774 12.519 14.061 12.3709 13.9121L12.3407 13.8782L11.0073 12.2115C10.8636 12.0318 10.8927 11.7696 11.0724 11.6259Z"/><path id="Path 28" fill="#000638" d="M13.6747 12.6909C13.8184 12.5112 14.0806 12.4821 14.2603 12.6259C14.428 12.76 14.4646 12.9974 14.3518 13.1745L14.3254 13.2115L12.992 14.8782C12.8483 15.0579 12.5861 15.087 12.4064 14.9433C12.2387 14.8091 12.2021 14.5717 12.3149 14.3946L12.3413 14.3576L13.6747 12.6909Z"/><path id="Path 29" fill="#000638" d="M11.0381 13.9898C11.1899 13.838 11.4299 13.8278 11.5935 13.9595L11.6273 13.9898L12.9606 15.3232C13.1234 15.4859 13.1234 15.7497 12.9606 15.9124C12.8088 16.0643 12.5688 16.0744 12.4052 15.9428L12.3714 15.9124L11.0381 14.5791C10.8753 14.4164 10.8753 14.1526 11.0381 13.9898Z"/><path id="Shape_3" fill="#000638" fill-rule="evenodd" d="M12.9874 3.54767C12.8254 3.53893 12.6628 3.53455 12.4997 3.53455C7.57514 3.53455 3.58301 7.52667 3.58301 12.4512C3.58301 16.2119 5.93273 19.5294 9.40149 20.8148L9.69105 20.0334L9.56582 19.9858C6.49015 18.7879 4.41634 15.8151 4.41634 12.4512C4.41634 7.98691 8.03537 4.36788 12.4997 4.36788C12.7219 4.36788 12.9429 4.37683 13.1625 4.39464L13.2298 3.56403L12.9874 3.54767ZM21.4164 12.4512C21.4164 8.71171 19.093 5.40895 15.6527 4.10815L15.358 4.88763L15.4839 4.93643C18.5333 6.14784 20.5831 9.10688 20.5831 12.4512C20.5831 16.9155 16.964 20.5345 12.4997 20.5345C12.3856 20.5345 12.2717 20.5322 12.1582 20.5275L12.1236 21.3601L12.3114 21.3659L12.4997 21.3679C17.4243 21.3679 21.4164 17.3757 21.4164 12.4512Z" clip-rule="evenodd"/><path id="Path 42" fill="#000638" d="M11.7258 1.68549C11.888 1.54464 12.1281 1.55136 12.282 1.69413L12.3137 1.7268L14.2798 3.99028L11.9012 6.08672C11.7285 6.23888 11.4652 6.22227 11.3131 6.04964C11.1711 5.88851 11.1761 5.64841 11.3177 5.4934L11.3502 5.46155L13.1078 3.91205L11.6845 2.27329C11.5437 2.11114 11.5504 1.87108 11.6932 1.7171L11.7258 1.68549Z"/><path id="Path 43" fill="#000638" d="M13.4908 18.9377C13.6697 18.7929 13.932 18.8205 14.0768 18.9994C14.212 19.1663 14.1969 19.406 14.0489 19.5549L14.0152 19.5854L12.2672 21.0003L13.8404 22.7684C13.9831 22.9289 13.9792 23.169 13.8383 23.3247L13.806 23.3567C13.6455 23.4994 13.4054 23.4956 13.2498 23.3546L13.2178 23.3223L11.0645 20.902L13.4908 18.9377Z"/></g></g></svg>

<svg xmlns="http://www.w3.org/2000/svg" width="25" height="25" fill="none" viewBox="0 0 25 25"><path fill="#000638" fill-rule="evenodd" d="M12.926 7.277a.417.417 0 0 0-.52-.651c-2.312 1.844-3.49 3.747-3.49 5.71q0 .716.21 1.403a.417.417 0 0 0 .797-.243 4 4 0 0 1-.174-1.16c0-1.67 1.045-3.358 3.177-5.06m-2.559 7.138-.03-.041a.417.417 0 1 0-.676.488l.035.046.077.1.042.053.094.111.104.12.116.127.127.136.137.144.15.152.16.16.26.256.188.181.2.19.32.3.345.318.37.337a.417.417 0 0 0 .56-.617l-.123-.111-.463-.425-.318-.296-.385-.366-.26-.252-.16-.158-.217-.22-.193-.202-.115-.123-.103-.115-.092-.106-.08-.098z" clip-rule="evenodd"/><circle cx="17.25" cy="6.25" r="6.25" fill="#FDD"/><path fill="#000638" fill-rule="evenodd" d="M16.083 12.331c0-1.897-1.065-3.689-3.155-5.371a.417.417 0 1 0-.523.65c1.91 1.536 2.845 3.109 2.845 4.721q0 .45-.096.859a.417.417 0 0 0 .812.189q.117-.504.117-1.048m-.403 2.185a.417.417 0 1 0-.693-.463 2 2 0 0 1-.111.145l-.073.083-.086.091-.097.098-.11.106-.12.112-.133.12-.145.126-.156.134-.168.14-.18.147-.19.154-.309.244-.334.259-.36.273a.417.417 0 0 0 .503.666l.256-.195.243-.187.232-.18.22-.173.208-.167.29-.237.262-.223.16-.14.148-.133.137-.127.125-.121.114-.114.101-.108.09-.102q.107-.125.176-.228" clip-rule="evenodd"/><path fill="#000638" d="M12.75 9.535c.215 0 .393.163.414.374l.002.042v8a.417.417 0 0 1-.83.043l-.003-.043v-8c0-.23.187-.416.417-.416"/><path fill="#000638" d="M13.705 10.657a.417.417 0 0 1 .62.555l-.03.034-1.334 1.333a.417.417 0 0 1-.62-.555l.031-.034z"/><path fill="#000638" d="M11.072 11.626a.417.417 0 0 1 .556.031l.03.034 1.333 1.667a.417.417 0 0 1-.62.554l-.03-.034-1.334-1.667a.417.417 0 0 1 .065-.585"/><path fill="#000638" d="M13.675 12.69a.417.417 0 0 1 .677.485l-.027.036-1.333 1.667a.417.417 0 0 1-.677-.483l.026-.037z"/><path fill="#000638" d="M11.038 13.99a.417.417 0 0 1 .556-.03l.033.03 1.334 1.333a.416.416 0 0 1-.556.62l-.034-.03-1.333-1.334a.417.417 0 0 1 0-.59"/><path fill="#000638" fill-rule="evenodd" d="M12.987 3.548a8.917 8.917 0 0 0-3.586 17.267l.29-.782-.125-.047a8.086 8.086 0 0 1 3.596-15.591l.068-.831zm8.43 8.903a8.92 8.92 0 0 0-5.764-8.343l-.295.78.126.048a8.086 8.086 0 0 1-3.326 15.592l-.034.832.187.006.189.002a8.917 8.917 0 0 0 8.916-8.917" clip-rule="evenodd"/><path fill="#000638" d="M11.726 1.685a.417.417 0 0 1 .556.01l.032.032L14.28 3.99 11.9 6.087a.417.417 0 0 1-.583-.594l.032-.031 1.758-1.55-1.424-1.639a.417.417 0 0 1 .01-.556zm1.764 17.253a.417.417 0 0 1 .559.617l-.034.03L12.267 21l1.573 1.768c.143.16.14.401-.002.557l-.032.032a.417.417 0 0 1-.556-.002l-.032-.033-2.153-2.42z"/></svg>
